images/logo.svg

<svg width="190" height="44" viewBox="0 0 190 44" fill="none" xmlns="http://www.w3.org/2000/svg">
<path d="M87.6923 20.8628V16.9881H102.924V20.8628H97.6527V34.701H92.9634V20.8628H87.6923Z" fill="white"/>
<path d="M109.506 27.2283V34.701H104.783V16.9881H109.335V23.9418H109.472C109.769 23.0942 110.262 22.434 110.952 21.9612C111.643 21.4826 112.473 21.2433 113.443 21.2433C114.372 21.2433 115.18 21.4567 115.864 21.8833C116.554 22.31 117.088 22.8981 117.464 23.6477C117.847 24.3973 118.035 25.2564 118.029 26.2251V34.701H113.306V27.2283C113.311 26.571 113.149 26.055 112.818 25.6802C112.493 25.3054 112.028 25.118 111.423 25.118C110.847 25.118 110.385 25.3054 110.037 25.6802C109.689 26.055 109.512 26.571 109.506 27.2283Z" fill="white"/>
<path d="M126.659 34.9431C124.554 34.9431 122.897 34.3406 121.687 33.1355C120.484 31.9247 119.882 30.2439 119.882 28.0932C119.882 26.7209 120.155 25.5216 120.703 24.4953C121.251 23.469 122.024 22.6704 123.022 22.0996C124.02 21.5287 125.198 21.2433 126.556 21.2433C127.88 21.2433 129.029 21.5172 130.005 22.065C130.986 22.6127 131.745 23.3969 132.281 24.4175C132.823 25.4323 133.094 26.646 133.094 28.0586V29.1657H124.537V29.3733C124.537 30.0133 124.731 30.5438 125.119 30.9647C125.512 31.3798 126.06 31.5874 126.761 31.5874C127.246 31.5874 127.669 31.4865 128.028 31.2847C128.393 31.0771 128.644 30.7859 128.781 30.4111H133.094C132.871 31.795 132.198 32.8962 131.074 33.715C129.956 34.5338 128.484 34.9431 126.659 34.9431ZM124.537 26.5364H128.747C128.735 25.9656 128.53 25.5015 128.131 25.144C127.737 24.7807 127.246 24.5991 126.659 24.5991C126.083 24.5991 125.586 24.7778 125.17 25.1353C124.759 25.4928 124.548 25.9598 124.537 26.5364Z" fill="white"/>
<path d="M150.159 16.9881H154.882V28.6814C154.882 30.0306 154.568 31.1694 153.941 32.0977C153.319 33.0202 152.44 33.7208 151.305 34.1993C150.176 34.6721 148.846 34.9086 147.318 34.9086C145.777 34.9086 144.44 34.6721 143.304 34.1993C142.175 33.7208 141.299 33.0202 140.677 32.0977C140.061 31.1694 139.753 30.0306 139.753 28.6814V16.9881H144.511V28.4738C144.511 29.1311 144.759 29.6644 145.255 30.0738C145.757 30.4832 146.445 30.6879 147.318 30.6879C148.208 30.6879 148.904 30.4832 149.406 30.0738C149.908 29.6644 150.159 29.1311 150.159 28.4738V16.9881Z" fill="white"/>
<path d="M166.59 22.5234C166.544 21.9468 166.331 21.497 165.948 21.1741C165.572 20.8512 164.999 20.6898 164.228 20.6898C163.492 20.6898 162.956 20.8166 162.62 21.0703C162.283 21.324 162.112 21.6469 162.106 22.039C162.083 22.4599 162.263 22.803 162.645 23.0682C163.033 23.3335 163.641 23.5555 164.468 23.7342L165.906 24.0456C167.839 24.4665 169.234 25.1411 170.09 26.0694C170.946 26.9919 171.376 28.1278 171.382 29.4771C171.376 31.2241 170.743 32.5676 169.482 33.5074C168.222 34.4415 166.482 34.9086 164.263 34.9086C162.739 34.9086 161.41 34.6808 160.275 34.2253C159.146 33.7698 158.267 33.0692 157.639 32.1236C157.018 31.1722 156.704 29.9556 156.698 28.4738H161.216C161.256 29.2868 161.533 29.9066 162.046 30.3333C162.565 30.7542 163.281 30.9647 164.194 30.9647C164.959 30.9647 165.535 30.8263 165.923 30.5495C166.316 30.2728 166.516 29.9153 166.522 29.4771C166.516 29.0734 166.319 28.739 165.931 28.4738C165.543 28.2028 164.862 27.9606 163.886 27.7473L162.14 27.3667C160.589 27.0265 159.365 26.4586 158.47 25.6629C157.58 24.8614 157.137 23.7688 157.143 22.385C157.137 21.2606 157.434 20.2775 158.033 19.4357C158.638 18.5881 159.474 17.9279 160.54 17.4551C161.613 16.9823 162.842 16.7459 164.228 16.7459C165.643 16.7459 166.867 16.9852 167.899 17.4638C168.932 17.9423 169.728 18.6169 170.287 19.4876C170.852 20.3525 171.137 21.3644 171.142 22.5234H166.59Z" fill="white"/>
<path d="M177.062 34.701H171.928L177.712 16.9881H184.215L190 34.701H184.866L183.856 31.3106H178.072L177.062 34.701ZM179.15 27.7127H182.778L181.032 21.866H180.895L179.15 27.7127Z" fill="white"/>
<path d="M72.8594 5.4725V5.91089L71.5444 7.07501L70.8944 7.05366L70.4007 7.31637L70.535 7.84342V8.21614L69.3896 8.76618L69.1898 9.53459V10.9828L70.0883 12.0352L69.9757 12.4753L69.0319 12.848V13.4391L68.3534 13.797L67.9066 14.0318H67.166L65.9987 15.1959L66.1784 15.3716L66.3817 16.6884L65.6175 18.4026L65.3269 18.3582L65.2598 17.8739L64.5342 17.8345L65.033 18.6866L65.6175 19.3664L65.3706 20.3778L64.9658 21.0247H64.5695L64.6299 20.2891L64.2873 19.7604L63.7852 19.5026L63.7331 18.8393L63.891 18.0052L63.6458 17.8509L63.0831 18.4223L63.2864 18.8393L63.3317 19.7621L63.6911 19.9378L64.0724 20.6405L64.1546 21.0231L64.205 21.2546L64.0472 21.7603L64.6316 21.8046L65.0817 21.9984L64.9692 22.55L65.3504 22.7914L65.3286 23.0098L64.9457 23.3611L65.6192 23.8669V24.5253L65.1019 24.8323L65.4159 25.3807L65.1926 25.9307L63.4174 26.2148V26.8945L62.9018 27.8616L62.0704 28.039L61.9428 28.2508L61.4641 29.0471L61.4876 29.4871L60.4111 30.6053H59.9576L59.5982 31.3737L59.0137 31.6807L59.0037 31.8646L58.8576 34.1403L59.2841 34.6903L59.4655 35.4571L59.489 35.4785L59.9375 35.8528V36.4472L61.014 37.347L61.1265 38.3584L61.5296 39.0956L62.3173 40.5323V42.7095H60.6546C60.6546 42.7095 60.6563 42.6897 60.6546 42.6848C60.5908 42.5239 60.1827 42.1758 60.1827 42.1758L59.5562 42.2234V41.4764H59.1279L58.9482 41.1923V40.7753L58.5888 40.7523L57.8717 39.9395L57.9624 39.4782L57.603 39.5225L57.4216 39.1941L57.4451 39.0972L57.603 38.4257L57.4888 37.2846L57.1075 37.1532L55.9638 35.9234L54.9964 35.8561L53.8527 36.5145L53.4026 36.6245L52.7073 35.6164L50.8514 35.4818L50.5743 35.462L50.5458 35.4818L49.968 35.9004L49.654 35.5491L49.2559 35.8939L47.5882 35.9004V36.6032L47.2741 37.0202L48.1273 37.8773L47.6554 38.1614L46.51 37.6343L45.902 38.3387L44.8708 38.3354L44.5802 37.347L43.3895 37.0186V37.5243L43.1443 37.6786L41.5034 37.2616H40.8081L38.5845 38.227V38.6671L37.6876 39.2582L36.6984 39.4568L36.339 39.9839L35.8452 40.0282L35.5765 40.6423L35.2406 40.731L35.2625 42.0051C35.2003 42.2152 35.2087 42.4664 35.2457 42.7095C35.3313 43.2579 35.5765 43.7816 35.5765 43.7816L35.2843 44L34.0734 43.6486C33.2924 43.5009 32.8121 43.092 32.5232 42.7095C32.2108 42.2973 32.1185 41.9164 32.1185 41.9164C32.0295 41.322 31.8951 41.1037 31.8951 41.1037C31.1544 40.6866 30.5918 39.1498 30.5918 39.1498C30.5851 39.1301 30.5767 39.1137 30.5683 39.0972C30.0309 37.8379 29.2667 37.2189 29.2667 37.2189H28.5261L28.3027 36.9775L27.0447 36.9332V37.7903L26.2587 38.3814C25.0915 38.0973 24.2652 36.6787 24.2652 36.6787L24.3055 35.9021L21.746 32.8728L19.3645 32.6971L19.1646 33.5985L14.9189 33.0928L10.0467 30.2161V29.4477H6.62557L6.51472 28.2557L6.4677 27.7368L5.88324 27.5185V26.8601H5.34412L5.26183 26.3855L4.80669 26.2673L3.95183 25.2362L2.82993 25.1049L2.44869 24.7978L2.50075 24.6451L2.50243 24.6435L2.67206 24.1591L2.5377 23.9194L2.4235 23.6337L2.58137 23.238L1.86423 21.5041L1.66101 21.3268V21.0641L1.97507 20.7357V20.4073L1.45779 19.813L1.50314 18.5175L1.0312 18.0118L1.07655 17.3091L0.550871 16.5324L0.604615 15.4915L0.762486 14.8281L0 13.9891L0.428269 13.4177L1.21259 12.1666L1.12358 11.5525L1.34695 11.1568L1.43764 9.57728L2.87528 7.02903V6.45765L3.11544 6.11449L3.3237 5.82058L3.7738 4.41675V4.02269L4.17856 3.56131L3.93167 3.12128L3.96023 2.4054L4.33475 2.04911L3.97702 1.99985L3.99885 1.47444L3.77548 1.36443V1.0147L3.99885 0.423614H4.31292L4.51614 0.950668L5.25679 1.23636L6.04279 1.36771V1.89641L5.70689 2.35779L5.25679 2.51049L5.34748 3.21322H5.99744L6.44754 2.68617V2.06881L6.62725 1.85044L6.26784 1.38906L6.52648 0.949026L6.62725 0.709307L6.42403 0.510635L6.62557 0L9.40848 0.839018L12.8464 1.73879L14.0237 1.99328L14.1715 2.02448L20.0329 2.94723L20.1605 2.96365L21.5915 3.13113L28.8636 3.99149L35.1886 4.26405L38.1529 4.06866V3.49728L38.7608 3.847V4.57109L40.0188 5.01112L40.3782 4.61542L41.3204 4.92246L41.5908 5.36249L42.6282 6.11111L43.8462 6.72222L42.0192 8.55556L43.114 8.21614V8.94514L44.4551 8.55556L45.2949 7.84506L45.6731 7.33333H46.2821L45.6731 8.21614H46.2821L46.891 8.55556H48.109L49.3269 8.21614L49.7453 8.67915H50.1922L50.5449 9.16667L47.5 9.77778L46.891 11V12.2222V16.5L48.109 15.8889V13.6624L48.2683 11.9285L49.7453 10.0091H50.7476L51.2919 10.5444L51.7628 11L51.2919 12.6526L52.3718 12.4342L52.9808 13.4444L52.3718 14.6667V15.8889H52.9808H53.5897H54.1987L54.6387 15.6526V15.3716V15.0022L55.8278 13.6624L56.9278 13.728L57.8952 12.9826L58.567 13.004L58.7467 12.6526L58.5905 12.3455L57.8717 12.4342L57.7592 11.9285L58.4763 11.2487L59.6889 10.6133L60.6344 10.656L60.4984 10.239L62.0016 9.6249L62.3391 8.94514L63.283 8.1324L66.8754 7.31801L67.0988 6.72856L67.653 6.57586L67.6581 6.57422L67.7941 6.31152L67.8159 5.89447L68.1317 5.78446L68.1082 5.32308L67.8394 4.77304L68.2106 2.96201H70.6845L71.2757 4.77304L71.8148 4.79603L71.8786 5.36085L72.8594 5.4725Z" fill="white"/>
</svg>

<svg width="190" height="44" fill="none" xmlns="http://www.w3.org/2000/svg"><path d="M87.692 20.863v-3.875h15.232v3.875h-5.271V34.7h-4.69V20.863h-5.27zM109.506 27.228v7.473h-4.723V16.988h4.552v6.954h.137c.297-.848.79-1.508 1.48-1.98.691-.48 1.521-.719 2.491-.719.929 0 1.737.214 2.421.64a4.29 4.29 0 011.6 1.765c.383.75.571 1.608.565 2.577v8.476h-4.723v-7.473c.005-.657-.157-1.173-.488-1.548-.325-.375-.79-.562-1.395-.562-.576 0-1.038.187-1.386.562-.348.375-.525.891-.531 1.548zM126.659 34.943c-2.105 0-3.762-.602-4.972-1.807-1.203-1.211-1.805-2.892-1.805-5.043 0-1.372.273-2.571.821-3.598a5.909 5.909 0 012.319-2.395c.998-.571 2.176-.857 3.534-.857 1.324 0 2.473.274 3.449.822a5.627 5.627 0 012.276 2.352c.542 1.015.813 2.229.813 3.642v1.107h-8.557v.207c0 .64.194 1.17.582 1.592.393.415.941.622 1.642.622.485 0 .908-.1 1.267-.302.365-.208.616-.5.753-.874h4.313c-.223 1.384-.896 2.485-2.02 3.304-1.118.819-2.59 1.228-4.415 1.228zm-2.122-8.407h4.21c-.012-.57-.217-1.035-.616-1.392-.394-.363-.885-.545-1.472-.545a2.21 2.21 0 00-1.489.536c-.411.358-.622.825-.633 1.401zM150.159 16.988h4.723v11.693c0 1.35-.314 2.488-.941 3.417-.622.922-1.501 1.623-2.636 2.101-1.129.473-2.459.71-3.987.71-1.541 0-2.878-.237-4.014-.71-1.129-.478-2.005-1.179-2.627-2.101-.616-.929-.924-2.067-.924-3.417V16.988h4.758v11.486c0 .657.248 1.19.744 1.6.502.41 1.19.614 2.063.614.89 0 1.586-.205 2.088-.614.502-.41.753-.943.753-1.6V16.988zM166.59 22.523c-.046-.576-.259-1.026-.642-1.349-.376-.323-.949-.484-1.72-.484-.736 0-1.272.127-1.608.38-.337.254-.508.577-.514.969-.023.42.157.764.539 1.03.388.265.996.486 1.823.665l1.438.312c1.933.42 3.328 1.095 4.184 2.023.856.923 1.286 2.059 1.292 3.408-.006 1.747-.639 3.09-1.9 4.03-1.26.934-3 1.402-5.219 1.402-1.524 0-2.853-.228-3.988-.684-1.129-.455-2.008-1.156-2.636-2.101-.621-.952-.935-2.168-.941-3.65h4.518c.04.813.317 1.433.83 1.86.519.42 1.235.63 2.148.63.765 0 1.341-.138 1.729-.415.393-.276.593-.634.599-1.072-.006-.404-.203-.738-.591-1.003-.388-.271-1.069-.513-2.045-.727l-1.746-.38c-1.551-.34-2.775-.908-3.67-1.704-.89-.802-1.333-1.894-1.327-3.278-.006-1.124.291-2.108.89-2.95.605-.847 1.441-1.507 2.507-1.98 1.073-.473 2.302-.71 3.688-.71 1.415 0 2.639.24 3.671.719 1.033.478 1.829 1.153 2.388 2.024.565.864.85 1.876.855 3.035h-4.552zM177.062 34.701h-5.134l5.784-17.713h6.503L190 34.701h-5.134l-1.01-3.39h-5.784l-1.01 3.39zm2.088-6.988h3.628l-1.746-5.847h-.137l-1.745 5.847zM72.86 5.473v.438l-1.316 1.164-.65-.021-.493.262.134.527v.373l-1.145.55-.2.769v1.448l.898 1.052-.112.44-.944.373v.591l-.679.358-.446.235h-.741l-1.167 1.164.18.176.203 1.316-.764 1.715-.291-.045-.067-.484-.726-.04.499.853.585.68-.247 1.01-.405.648h-.396l.06-.736-.343-.529-.502-.257-.052-.664.158-.834-.245-.154-.563.571.203.417.046.923.36.176.38.703.083.382.05.232-.158.505.585.045.45.193-.113.552.381.241-.021.219-.383.351.673.506v.658l-.517.307.314.549-.223.55-1.776.284v.68l-.515.967-.832.177-.127.212-.479.796.024.44-1.077 1.118h-.453l-.36.769-.584.307-.01.184-.146 2.275.426.55.181.767.024.021.449.375v.594l1.076.9.112 1.011.404.738.787 1.436v2.178h-1.662v-.025c-.064-.161-.472-.51-.472-.51l-.627.048v-.747h-.428l-.18-.284v-.417l-.36-.023-.716-.813.09-.46-.359.044-.181-.329.023-.097.158-.671-.114-1.141-.381-.132-1.144-1.23-.968-.067-1.143.658-.45.11-.696-1.008-1.856-.134-.277-.02-.028.02-.578.418-.314-.35-.398.344-1.668.006v.703l-.314.417.853.857-.472.284-1.145-.527-.608.705-1.031-.004-.29-.988-1.192-.328v.505l-.245.155-1.64-.417h-.696l-2.224.965v.44l-.896.591-.99.199-.359.527-.494.044-.268.614-.336.089.022 1.274c-.063.21-.054.461-.017.704.085.549.33 1.073.33 1.073l-.292.218-1.21-.351c-.782-.148-1.262-.557-1.55-.94a2.397 2.397 0 01-.406-.793c-.089-.594-.223-.812-.223-.812-.74-.417-1.303-1.954-1.303-1.954-.007-.02-.015-.036-.024-.053-.537-1.26-1.301-1.878-1.301-1.878h-.74l-.224-.242-1.258-.044v.857l-.786.591c-1.168-.284-1.994-1.702-1.994-1.702l.04-.777-2.559-3.03-2.381-.175-.2.901-4.246-.505-4.872-2.877v-.768H6.626l-.111-1.192-.047-.52-.585-.218v-.658h-.539l-.082-.474-.455-.119-.855-1.03-1.122-.132-.381-.307.052-.153.001-.002.17-.484-.134-.24-.114-.285.157-.396-.717-1.734-.203-.177v-.263l.314-.328v-.329l-.517-.594.045-1.296-.472-.505.046-.703-.526-.777.054-1.04.157-.664L0 13.99l.428-.571.785-1.251-.09-.614.224-.396.09-1.58L2.876 7.03v-.571l.24-.344.209-.293.45-1.404v-.394l.405-.462-.247-.44.028-.716.375-.356L3.977 2l.022-.525-.224-.11v-.35L4 .425h.314l.203.527.74.285.787.132v.528l-.336.462-.45.152.09.703h.65l.45-.527V2.07l.18-.219-.36-.46.26-.441.1-.24-.203-.198L6.626 0l2.782.839 3.438.9 1.178.254.148.031 5.86.923.128.017 1.431.167 7.273.86 6.325.273 2.964-.195v-.572l.608.35v.724l1.258.44.36-.396.941.307.27.44 1.038.75 1.218.61-1.827 1.834 1.095-.34v.73l1.341-.39.84-.71.378-.513h.61l-.61.883h.61l.608.34h1.218l1.218-.34.418.463h.447l.353.488-3.045.61L46.891 11v5.5l1.218-.611v-2.227l.16-1.734 1.476-1.919h1.003l.544.535.47.456-.47 1.653 1.08-.219.609 1.01-.61 1.223v1.222H54.2l.44-.236v-.651l1.189-1.34 1.1.066.967-.745.672.021.18-.351-.157-.308-.718.09-.113-.507.717-.68 1.213-.635.945.043-.136-.417 1.504-.614.337-.68.944-.813 3.592-.814.224-.59.554-.152.005-.002.136-.262.022-.418.316-.11-.024-.46-.269-.551.372-1.811h2.474l.59 1.811.54.023.064.565.98.112z" fill="#fff"/></svg>
